X: 2064
M: C|
L: 1/8
K: Gm
|:\
c3d (cA)(GF) | F3G A2(GF) |\
d3(c/d/) (fd)(cA) | G4 B4 :|
|:\
(d=e)(fg) (f=e)(dc) | (Bc)(d=e) f3d |\
(ag)(fd) (cd)(cA) | G4 B4 |]


